packages/sources/assets/src/assets/flag-cna.svg

<svg width="28" height="20" viewBox="0 0 28 20" fill="none" xmlns="http://www.w3.org/2000/svg">
<rect width="28" height="20" rx="2" fill="white"/>
<mask id="mask0_503_2926" style="mask-type:alpha" maskUnits="userSpaceOnUse" x="0" y="0" width="28" height="20">
<rect width="28" height="20" rx="2" fill="white"/>
</mask>
<g mask="url(#mask0_503_2926)">
<rect width="28" height="20" fill="#19BFBF"/>
<path fill-rule="evenodd" clip-rule="evenodd" d="M13.3333 14.6667L12.7588 13.5176C12.7023 13.4047 12.5869 13.3333 12.4607 13.3333H12.1381C12.0497 13.3333 11.9649 13.2982 11.9024 13.2357L9.43096 10.7643C9.36845 10.7018 9.33333 10.617 9.33333 10.5286V9.47139C9.33333 9.38299 9.29821 9.2982 9.2357 9.23569L8.06529 8.06528C8.02257 8.02256 7.99226 7.96903 7.97761 7.91042L7.37771 5.51084C7.35007 5.40028 7.26786 5.3115 7.15974 5.27546L5.35581 4.67415C5.34084 4.66916 5.32625 4.66312 5.31215 4.65606L4.18426 4.09212C4.07133 4.03566 4 3.92024 4 3.79398V2.99999C4 2.8159 4.14924 2.66666 4.33333 2.66666H5.19526C5.28367 2.66666 5.36845 2.70178 5.43096 2.76429L5.90237 3.23569C5.96488 3.2982 6.04967 3.33332 6.13807 3.33332H7.19526C7.28367 3.33332 7.36845 3.2982 7.43096 3.23569L7.90237 2.76429C7.96488 2.70178 8.04967 2.66666 8.13807 2.66666H10.588C10.6397 2.66666 10.6908 2.6787 10.737 2.70185L11.9296 3.29813C11.9759 3.32127 12.0269 3.33332 12.0787 3.33332H13.2546C13.3064 3.33332 13.3574 3.32127 13.4037 3.29813L14.5963 2.70185C14.6426 2.6787 14.6936 2.66666 14.7454 2.66666H17C17.1841 2.66666 17.3333 2.81589 17.3333 2.99999V3.66666C17.3333 3.85075 17.1841 3.99999 17 3.99999H16.3333C16.1492 3.99999 16 4.14923 16 4.33332V5.79398C16 5.92024 16.0713 6.03566 16.1843 6.09212L16.8509 6.42545C17.0726 6.53627 17.3333 6.37511 17.3333 6.12731V4.99999C17.3333 4.81589 17.4826 4.66666 17.6667 4.66666H19C19.1841 4.66666 19.3333 4.81589 19.3333 4.99999C19.3333 5.18408 19.4826 5.33332 19.6667 5.33332H21C21.1841 5.33332 21.3333 5.48256 21.3333 5.66666V6.61256C21.3333 6.64839 21.3276 6.68398 21.3162 6.71797L20.6915 8.59201C20.6752 8.6411 20.6476 8.68571 20.611 8.7223L18.7049 10.6284C18.6796 10.6537 18.6585 10.683 18.6425 10.715L18.0352 11.9296C18.012 11.9759 18 12.0269 18 12.0787V13C18 13.1841 17.8508 13.3333 17.6667 13.3333H17.5393C17.4131 13.3333 17.2977 13.262 17.2412 13.1491L16.7588 12.1843C16.7023 12.0713 16.5869 12 16.4607 12H14.8727C14.7464 12 14.631 12.0713 14.5745 12.1843L14.0745 13.1843C14.0276 13.2781 14.0276 13.3886 14.0745 13.4824L14.5745 14.4824C14.631 14.5953 14.7464 14.6667 14.8727 14.6667H15.8619C15.9503 14.6667 16.0351 14.7018 16.0976 14.7643L17.2357 15.9024C17.2982 15.9649 17.3333 16.0497 17.3333 16.1381V17C17.3333 17.1841 17.1841 17.3333 17 17.3333H16.206C16.0798 17.3333 15.9643 17.262 15.9079 17.1491L15.4255 16.1843C15.369 16.0713 15.2536 16 15.1273 16H14.206C14.0798 16 13.9643 15.9287 13.9079 15.8157L13.3333 14.6667Z" fill="white"/>
</g>
</svg>

<svg width="28" height="20" fill="none" xmlns="http://www.w3.org/2000/svg"><rect width="28" height="20" rx="2" fill="#fff"/><mask id="a" style="mask-type:alpha" maskUnits="userSpaceOnUse" x="0" y="0" width="28" height="20"><rect width="28" height="20" rx="2" fill="#fff"/></mask><g mask="url(#a)"><path fill="#19BFBF" d="M0 0h28v20H0z"/><path fill-rule="evenodd" clip-rule="evenodd" d="m13.333 14.667-.574-1.15a.333.333 0 0 0-.298-.184h-.323a.333.333 0 0 1-.236-.097l-2.471-2.472a.333.333 0 0 1-.098-.235V9.47a.333.333 0 0 0-.097-.235l-1.17-1.17a.333.333 0 0 1-.088-.156l-.6-2.4a.333.333 0 0 0-.218-.235l-1.804-.6a.332.332 0 0 1-.044-.019l-1.128-.564A.333.333 0 0 1 4 3.794V3c0-.184.15-.333.333-.333h.862c.089 0 .173.035.236.097l.471.472a.333.333 0 0 0 .236.097h1.057a.333.333 0 0 0 .236-.097l.471-.472a.333.333 0 0 1 .236-.097h2.45c.052 0 .103.012.149.035l1.193.596a.333.333 0 0 0 .149.035h1.176a.333.333 0 0 0 .149-.035l1.192-.596a.333.333 0 0 1 .15-.035H17c.184 0 .333.149.333.333v.667A.333.333 0 0 1 17 4h-.667a.333.333 0 0 0-.333.333v1.461c0 .126.071.242.184.298l.667.333a.333.333 0 0 0 .482-.298V5c0-.184.15-.333.334-.333H19c.184 0 .333.149.333.333 0 .184.15.333.334.333H21c.184 0 .333.15.333.334v.946a.331.331 0 0 1-.017.105l-.624 1.874a.332.332 0 0 1-.081.13l-1.906 1.906a.333.333 0 0 0-.063.087l-.607 1.215a.333.333 0 0 0-.035.149V13c0 .184-.15.333-.333.333h-.128a.333.333 0 0 1-.298-.184l-.482-.965A.333.333 0 0 0 16.46 12h-1.588a.333.333 0 0 0-.298.184l-.5 1a.333.333 0 0 0 0 .298l.5 1a.333.333 0 0 0 .298.185h.989c.088 0 .173.035.236.097l1.138 1.138a.333.333 0 0 1 .097.236V17a.333.333 0 0 1-.333.333h-.794a.333.333 0 0 1-.298-.184l-.482-.965a.333.333 0 0 0-.299-.184h-.921a.333.333 0 0 1-.298-.184l-.575-1.15Z" fill="#fff"/></g></svg>
